src/raw/car-key/icon_24.svg

<svg width="24" height="24" viewBox="0 0 24 24" fill="none" xmlns="http://www.w3.org/2000/svg">
<path d="M5 8.00004L3 12.75" stroke="#71717A" stroke-width="1.5" stroke-linecap="round" stroke-linejoin="round"/>
<path d="M1.5 19.468V21C1.5 21.3978 1.65804 21.7794 1.93934 22.0607C2.22064 22.342 2.60218 22.5 3 22.5C3.39782 22.5 3.77936 22.342 4.06066 22.0607C4.34196 21.7794 4.5 21.3978 4.5 21V19.6421" stroke="#71717A" stroke-width="1.5" stroke-linecap="round" stroke-linejoin="round"/>
<path d="M22.5 19.468V21C22.5 21.3978 22.342 21.7794 22.0607 22.0607C21.7794 22.342 21.3978 22.5 21 22.5C20.6022 22.5 20.2206 22.342 19.9393 22.0607C19.658 21.7794 19.5 21.3978 19.5 21V19.572" stroke="#71717A" stroke-width="1.5" stroke-linecap="round" stroke-linejoin="round"/>
<path d="M2.75 12.75H21.25C21.7804 12.75 22.2891 12.9607 22.6642 13.3358C23.0393 13.7109 23.25 14.2196 23.25 14.75V18.5C23.25 18.7652 23.1446 19.0196 22.9571 19.2071C22.7696 19.3946 22.5152 19.5 22.25 19.5H1.75C1.48478 19.5 1.23043 19.3946 1.04289 19.2071C0.855357 19.0196 0.75 18.7652 0.75 18.5V14.75C0.75 14.2196 0.960714 13.7109 1.33579 13.3358C1.71086 12.9607 2.21957 12.75 2.75 12.75V12.75Z" stroke="#71717A" stroke-width="1.5" stroke-linecap="round" stroke-linejoin="round"/>
<path d="M12.5 4.25C12.5 5.49265 13.5074 6.5 14.75 6.5C15.9926 6.5 17 5.49265 17 4.25C17 3.00736 15.9926 2 14.75 2C13.5074 2 12.5 3.00736 12.5 4.25Z" stroke="#71717A" stroke-width="1.5" stroke-linecap="round" stroke-linejoin="round"/>
<path d="M12.5 4.24988L7 4.24988L7 5.72783" stroke="#71717A" stroke-width="1.5" stroke-linecap="round" stroke-linejoin="round"/>
<path d="M14.25 16.5H9.75" stroke="#71717A" stroke-width="1.5" stroke-linecap="round" stroke-linejoin="round"/>
<path d="M23.25 16.125H20.25" stroke="#71717A" stroke-width="1.5" stroke-linecap="round" stroke-linejoin="round"/>
<path d="M0.75 16.125H3.75029" stroke="#71717A" stroke-width="1.5" stroke-linecap="round" stroke-linejoin="round"/>
<path d="M9.25 4.24988L9.25 5.85651" stroke="#71717A" stroke-width="1.5" stroke-linecap="round" stroke-linejoin="round"/>
<path d="M21 12.75L19 8.00004" stroke="#71717A" stroke-width="1.5" stroke-linecap="round" stroke-linejoin="round"/>
</svg>

<svg xmlns="http://www.w3.org/2000/svg" width="24" height="24" fill="none" viewBox="0 0 24 24">
  <path stroke="#3F3F46" stroke-linecap="round" stroke-linejoin="round" stroke-width="1.5"
    d="m5 8-2 4.75M1.5 19.468V21a1.5 1.5 0 0 0 3 0v-1.358M22.5 19.468V21a1.5 1.5 0 1 1-3 0v-1.428" />
  <path stroke="#3F3F46" stroke-linecap="round" stroke-linejoin="round" stroke-width="1.5"
    d="M2.75 12.75h18.5a2 2 0 0 1 2 2v3.75a1 1 0 0 1-1 1H1.75a1 1 0 0 1-1-1v-3.75a2 2 0 0 1 2-2v0ZM12.5 4.25a2.25 2.25 0 1 0 4.5 0 2.25 2.25 0 0 0-4.5 0ZM12.5 4.25H7v1.478M14.25 16.5h-4.5M23.25 16.125h-3M.75 16.125h3M9.25 4.25v1.607M21 12.75 19 8" />
</svg>
